resources/haticons/SVG/games.svg

<!-- Generated by IcoMoon.io -->
<svg version="1.1" xmlns="http://www.w3.org/2000/svg" width="24" height="24" viewBox="0 0 24 24">
<title>games</title>
<path d="M16.5 9h5.484v6h-5.484l-3-3zM9 16.5l3-3 3 3v5.484h-6v-5.484zM7.5 9l3 3-3 3h-5.484v-6h5.484zM15 7.5l-3 3-3-3v-5.484h6v5.484z"></path>
</svg>

<svg xmlns="http://www.w3.org/2000/svg" width="24" height="24"><path d="M16.5 9h5.484v6H16.5l-3-3zM9 16.5l3-3 3 3v5.484H9V16.5zM7.5 9l3 3-3 3H2.016V9H7.5zM15 7.5l-3 3-3-3V2.016h6V7.5z"/></svg>
